X:1
T:Jingle Bells
H: 
C:Traditional
O:Kevin Fraser
Z:Kevin Fraser
Q:1/4=90
K:HP
M:4/4
L:1/8
R:March
V:gstem=up stem=down
%%MIDI gracedivider 4
%%MIDI gchord
%%MIDI beatstring
w:
T: G Gracenote Version Jingle Bells
e |: {g}d2{g}d2{g}d4      | {g}d2 {g}d2 {g}d4    | {g}d2 f2 {g}B2 c2 | {g}d8 |
  | {g}e2{g}e2{g}e2{g}e2  | {g}e2 d2 {g}d2 {g}d2 | {g}d2 c2 {g}c2 d2 | {g}c4 f4 :|
  || {g}A2 f2 {g}e2 d2     | {g}A8                | {g}A2 f2 {g}e2 d2 | {g}B8 |
  | {g}B2 g2 {g}f2 e2     | {g}c8                |  a2   {g}a2 g2 e2 | {g}f8
  | {g}A2 f2 {g}e2 d2     | {g}A8                | {g}A2 f2 {g}e2 d2 | {g}B8 |
  | {g}B2 g2 {g}f2 e2     | a2 {g}a2 {g}a2 {g}a2 | {g}a2 g2 f2    e2 | {g}d4 a4 ||

w:
T: Embellished Jingle Bells
e |: {g}d2{c}d2{e}d4            | {g}d2 {c}d2 {e}d4        | {g}d2 f2 {g}B2 c2     | {g}d8 |
  | {gef}e2 {A}e2 {gef}e2 {G}e2 | {gef}e2 d2 {Gde}d2 {c}d2 | {gde}d2 c2 {gcd}c2 d2 | {gcd}c4 f4 :|
  || {g}A2 f2 {gef}e2 d2        | {g}A8                    | {g}A2 f2 {gef}e2 d2   | {gBd}B8 |
  | {g}B2 g2 {gfg}f2 e2         | {gcd}c8                  |  a2 {g}a2 {f}g2 e2    | {gfg}f8
  | {g}A2 f2 {gef}e2 d2         | {g}A8                    | {g}A2 f2 {gef}e2 d2   | {gBd}B8 |
  | {g}B2 g2 {gfg}f2 e2         | a2 {g}a2 {g}a2 {g}a2     | {g}a2 {f}g2 {fg}f2 e2 | {Gdc}d4 {ag}a4 ||


